X: 3180
T: MISS WHITEFORD
Q: "Reel."
R: Reel.
%R: reel
B: James Kerr "Merry Melodies" v.3 p.21 #180
Z: 2016 John Chambers <jc:trillian.mit.edu>
M: C
L: 1/8
K: Bb
d |\
B2(FD) FGBg | fdcB cGGd |\
B2(FD) FGBg | fdcd B/B/B B :|\
g |\
(fg/a/ b)g fdcB | ecdB cBGg |
(fg/a/ b)f gbfd | cBcd BB/B/ (Bg) |\
fg/a/ bg fdcB | ecdB cBGc |\
BGFD FGBg | fdcd B/B/B B |]

%%sep 1 1 500
%%sep 1 1 500

